!!!COM: Anonymous
!!!OPR: Missa Gross senen
!!!ONM: 4
!!!OTL: Sanctus
!!!AGN: Mass; Sanctus
!!!SCT: Ano1026d
!!!SCA: Ano1026d
!!!SMS: Trent 89
!!!folio-OPR:
!!!folio:
!!!voices: 4
**kern	**text	**kern	**text	**kern	**text	**kern	**text
*part4	*part4	*part3	*part3	*part2	*part2	*part1	*part1
*staff4	*staff4	*staff3	*staff3	*staff2	*staff2	*staff1	*staff1
*Ivox	*	*Ivox	*	*Ivox	*	*Ivox	*
*I"Bassus	*	*I"Tenor	*	*I"Altus	*	*I"Discantus	*
*I'B	*	*I'T	*	*I'A	*	*I'D	*
*>[A,B,C,D,E,F]	*>[A,B,C,D,E,F]	*>[A,B,C,D,E,F]	*>[A,B,C,D,E,F]	*>[A,B,C,D,E,F]	*>[A,B,C,D,E,F]	*>[A,B,C,D,E,F]	*>[A,B,C,D,E,F]
*>A	*>A	*>A	*>A	*>A	*>A	*>A	*>A
*clefF4	*	*clefGv2	*	*clefGv2	*	*clefG2	*
*k[b-e-]	*	*k[b-]	*	*k[b-]	*	*k[b-]	*
*g:	*	*d:	*	*d:	*	*d:	*
*M3/1	*	*M3/1	*	*M3/1	*	*M3/1	*
*met(O)	*	*met(C.)	*	*met(O)	*	*met(O)	*
*MM300	*	*MM300	*	*MM300	*	*MM300	*
=1	=1	=1	=1	=1	=1	=1	=1
!!section: Sanctus
!!!OMD: Sanctus
*	*	*rscale:1/4	*	*	*	*	*
!	!	!LO:TX:X=-40:Z=8:t=T&colon; ``Notas triplabus pausasque recte iurando [numerando?]'' [two levels of augmentation]	!	!	!	!	!
!	!	!LO:N:vis=1.	!	!	!	!	!
0.r	.	0.r	.	0.G	Sanc-	0g	Sanc-
.	.	.	.	.	.	[1b-	.
=2	=2	=2-	=2	=2	=2	=2	=2
0.r	.	0.ryy	.	2B-	.	2b-]	.
.	.	.	.	2c	.	4a	.
.	.	.	.	.	.	4g	.
.	.	.	.	0d	.	2b-	.
.	.	.	.	.	.	2.a	.
.	.	.	.	.	.	4g	.
.	.	.	.	.	.	2f	.
=3	=3	=3-	=3	=3	=3	=3	=3
!	!	!LO:N:vis=1.	!	!	!	!	!
0.r	.	0.r	.	1c	.	2.e	.
.	.	.	.	.	.	4f	.
.	.	.	.	2e-Xi	.	2g	.
.	.	.	.	2.d	.	2a	.
.	.	.	.	.	.	1d	-tus,
.	.	.	.	4c	.	.	.
.	.	.	.	2B-	.	.	.
=4	=4	=4-	=4	=4	=4	=4	=4
0.r	.	0.ryy	.	2.A	.	2r	.
.	.	.	.	.	.	2f	sanc-
.	.	.	.	4B-	.	.	.
.	.	.	.	2c	.	2e	.
.	.	.	.	2d	.	1d	.
.	.	.	.	1G	-tus,	.	.
.	.	.	.	.	.	2e	.
=5	=5	=5	=5	=5	=5	=5	=5
!	!	!LO:N:vis=1.	!	!	!	!	!
0.r	.	0.r	.	2r	.	2d	.
.	.	.	.	2B-	sanc-	2g	.
.	.	.	.	2A	.	2f	.
.	.	.	.	1G	.	1b-	.
.	.	.	.	[2c	.	2a	.
=6	=6	=6-	=6	=6	=6	=6	=6
0.r	.	0.ryy	.	4c]	.	2g	.
.	.	.	.	4B-	.	.	.
.	.	.	.	4A	.	2.cc	.
.	.	.	.	4G	.	.	.
.	.	.	.	2.F	.	.	.
.	.	.	.	.	.	4b-	.
.	.	.	.	.	.	4a	.
.	.	.	.	4G	.	4g	.
.	.	.	.	2A	-tus,	1f	-tus,
.	.	.	.	[2D	.	.	.
=7	=7	=7-	=7	=7	=7	=7	=7
!	!	!LO:N:vis=1.	!	!	!	!	!
0.r	.	0.r	.	2D]	.	2r	.
.	.	.	.	2r	.	2f	sanc-
.	.	.	.	2B-	sanc-	2g	.
.	.	.	.	2c	.	1a	.
.	.	.	.	1d	.	.	.
.	.	.	.	.	.	[2d	.
=8	=8	=8-	=8	=8	=8	=8	=8
0.r	.	0.ryy	.	2G	.	4d]	.
.	.	.	.	.	.	4e	.
.	.	.	.	2A	.	2f	.
.	.	.	.	2B-	.	2g	.
.	.	.	.	2c	.	2.a	.
.	.	.	.	2.d	.	.	.
.	.	.	.	.	.	4f	.
.	.	.	.	.	.	[2b-	.
.	.	.	.	4B-	.	.	.
=9	=9	=9	=9	=9	=9	=9	=9
!	!	!LO:N:vis=1.	!	!	!	!	!
0.r	.	0.r	.	2.e-Xi	.	4b-]	.
.	.	.	.	.	.	4a	.
.	.	.	.	.	.	4g	.
.	.	.	.	4d	.	4f	.
.	.	.	.	4c	.	2e	.
.	.	.	.	4B-	.	.	.
.	.	.	.	2A	.	2f	.
.	.	.	.	2B-	.	2d	.
.	.	.	.	2G	.	[2g	.
=10	=10	=10-	=10	=10	=10	=10	=10
0.r	.	0.ryy	.	1c	.	2g]	.
.	.	.	.	.	.	2.a	.
.	.	.	.	2d	.	.	.
.	.	.	.	.	.	4g	.
.	.	.	.	2B-	.	1g	.
.	.	.	.	1A	.	.	.
.	.	.	.	.	.	2f#Xi	.
=11	=11	=11-	=11	=11	=11	=11	=11
!	!	!LO:N:vis=1.	!	!	!	!	!
[0.G	Sanc-	0.r	.	1G	-tus,	0g	-tus,
.	.	.	.	2r	.	.	.
.	.	.	.	2d	sanc-	.	.
.	.	.	.	2e-Xi	.	2r	.
.	.	.	.	2d	.	[2d	sanc-
=12	=12	=12-	=12	=12	=12	=12	=12
1G]	.	0.ryy	.	2.B-	.	2d]	.
.	.	.	.	.	.	2e-Xi	.
.	.	.	.	4c	.	.	.
0GG	.	.	.	2d	.	2d	.
.	.	.	.	2G	-tus,	2.B-	.
.	.	.	.	2r	.	.	.
.	.	.	.	.	.	4c	.
.	.	.	.	2D	sanc-	2d	.
=13	=13	=13	=13	=13	=13	=13	=13
!	!	!LO:N:vis=1.	!	!	!	!	!
1C	.	[y0.G	Sanc-	2.E	.	2G	-tus,
.	.	.	.	.	.	2r	.
.	.	.	.	4F	.	.	.
2GG	.	.	.	2.G	.	2d	sanc-
1.C	.	.	.	.	.	2.e	.
.	.	.	.	4F	.	.	.
.	.	.	.	4E	.	.	.
.	.	.	.	4D	.	4f	.
.	.	.	.	2E	.	[2g	.
=14	=14	=14-	=14	=14	=14	=14	=14
2GG	.	0.G]yy	.	2D	-tus,	4g]	.
.	.	.	.	.	.	4f	.
1C	.	.	.	2r	.	4e	.
.	.	.	.	.	.	4d	.
.	.	.	.	2G	sanc-	2e	.
1.GG	.	.	.	2.B-	.	2.d	.
.	.	.	.	4c	.	4c	.
.	.	.	.	[2d	.	4B-	.
.	.	.	.	.	.	4A	.
=15	=15	=15-	=15	=15	=15	=15	=15
[0.GG	-tus,	0G	-tus,	4d]	.	2B-	.
.	.	.	.	4c	.	.	.
.	.	.	.	4B-	.	2G	-tus,
.	.	.	.	4A	.	.	.
.	.	.	.	2B-	.	2r	.
.	.	.	.	2G	-tus,	2.d	sanc-
!	!	!LO:N:vis=1	!	!	!	!	!
.	.	[y1G	sanc-	2r	.	.	.
.	.	.	.	.	.	4c	.
.	.	.	.	[2d	sanc-	2d	.
=16	=16	=16-	=16	=16	=16	=16	=16
0GG]	.	0.G]yy	.	4d]	.	2.B-	.
.	.	.	.	4c	.	.	.
.	.	.	.	2d	.	.	.
.	.	.	.	.	.	4c	.
.	.	.	.	2.B-	.	2.d	.
.	.	.	.	4c	.	4c	.
1r	.	.	.	2.d	.	4B-	.
.	.	.	.	.	.	4A	.
.	.	.	.	.	.	[2G	.
.	.	.	.	4c	.	.	.
=17	=17	=17	=17	=17	=17	=17	=17
!	!	!LO:N:vis=1	!	!	!	!	!
1G	sanc-	[y0.B-	.	4B-	.	2G]	.
.	.	.	.	4A	.	.	.
.	.	.	.	2G	-tus,	2d	.
0G	-tus,	.	.	2r	.	2e-Xi	.
.	.	.	.	2d	sanc-	2d	.
.	.	.	.	2e-Xi	.	2.g	.
.	.	.	.	[2d	.	.	.
.	.	.	.	.	.	4f	.
=18	=18	=18-	=18	=18	=18	=18	=18
1G	sanc-	1B-]yy	.	4d]	.	2g	.
.	.	.	.	4B-	.	.	.
.	.	.	.	2d	.	2d	.
2C	.	0c	.	2c	.	2e	.
2D	.	.	.	2A	.	2f	.
1E-	.	.	.	1G	.	2.g	.
.	.	.	.	.	.	4a	.
=19	=19	=19-	=19	=19	=19	=19	=19
1D	-tus	0d	-tus	1A	-tus	0f	-tus
1r	.	.	.	1D	.	.	.
!	!	!LO:N:vis=2	!	!	!	!	!
1GG	do-	[y1B-	do-	1d	.	1r	.
=20	=20	=20-	=20	=20	=20	=20	=20
1BB-	.	1B-]yy	.	2r	.	0.g	do-
.	.	.	.	2d	do-	.	.
1C	.	0G	-mi-	2c	.	.	.
.	.	.	.	2.e-Xi	.	.	.
1E-	-mi-	.	.	.	.	.	.
.	.	.	.	4d	.	.	.
.	.	.	.	4B-	-mi-	.	.
.	.	.	.	4c	.	.	.
=21	=21	=21	=21	=21	=21	=21	=21
!	!	!	!	!	!	!LO:TX:Z=12:t=MS&colon; perf br	!
!	!	!LO:N:vis=1.	!	!	!	!	!
[0.D	-nus	[y0.A	-nus	0d	-nus	0f	-mi-
.	.	.	.	2r	.	[1f	-nus
.	.	.	.	[2d	de-	.	.
=22	=22	=22-	=22	=22	=22	=22	=22
0.D]	.	0.A]yy	.	2d]	.	1f]	.
.	.	.	.	2e	.	.	.
.	.	.	.	1f	.	1d	de-
.	.	.	.	[1d	-us	1f	.
=23	=23	=23-	=23	=23	=23	=23	=23
0GG	de-	0G	de-	1d]	.	1g	.
!	!	!	!	!LO:TX:Z=12:t=MS&colon; sb r	!	!	!
.	.	.	.	2r	.	1b-	.
.	.	.	.	2.d	sa-	.	.
!	!	!LO:N:vis=1	!	!	!	!	!
[1D	-us	[y1F	-us,	.	.	1a	-us
.	.	.	.	4c	.	.	.
.	.	.	.	[2d	-ba-	.	.
=24	=24	=24-	=24	=24	=24	=24	=24
1D]	.	0.F]yy	.	4d]	.	2r	.
.	.	.	.	4c	.	.	.
.	.	.	.	1A	-oth,	2.d	sa-
1r	.	.	.	.	.	.	.
.	.	.	.	.	.	4c	.
.	.	.	.	2r	.	2.d	-ba-
[1D	sa-	.	.	2.d	sa-	.	.
.	.	.	.	.	.	4c	.
.	.	.	.	.	.	2A	-oth,
.	.	.	.	4c	.	.	.
=25	=25	=25	=25	=25	=25	=25	=25
!	!	!LO:N:vis=1	!	!	!	!	!
1D]	.	[y0.D	.	2A	.	2r	.
.	.	.	.	2B-	.	2.d	sa-
1F	-ba-	.	.	2A	.	.	.
.	.	.	.	.	.	4c	.
.	.	.	.	2.d	-ba-	2A	.
2BB-	.	.	.	.	.	2B-	-ba-
.	.	.	.	4c	.	.	.
[2F	.	.	.	2A	.	[2A	.
=26	=26	=26-	=26	=26	=26	=26	=26
2F]	.	1D]yy	.	1d	.	2A]	.
2BB-	.	.	.	.	.	2d	.
2C	.	0r	.	2c	.	2e-Xi	.
2D	.	.	.	4B-	.	1d	.
.	.	.	.	4A	.	.	.
1E-	.	.	.	1G	.	.	.
.	.	.	.	.	.	2c	.
=27	=27	=27-	=27	=27	=27	=27	=27
2D	.	0D	do-	2.F	.	0d	-oth,
1F	.	.	.	.	.	.	.
.	.	.	.	4G	.	.	.
.	.	.	.	1A	-oth,	.	.
2G	.	.	.	.	.	.	.
!	!	!LO:N:vis=2	!	!	!	!	!
1A	-oth,	[y1F	-mi-	1D	.	1r	.
=28	=28	=28-	=28	=28	=28	=28	=28
1D	do-	1F]yy	.	2r	.	1a	do-
.	.	.	.	2d	do-	.	.
0E-	-mi-	0G	-nus	2G	.	2.b-	-mi-
.	.	.	.	1B-	.	.	.
.	.	.	.	.	.	4a	.
.	.	.	.	.	.	1g	.
.	.	.	.	2c	-mi-	.	.
=29	=29	=29	=29	=29	=29	=29	=29
!	!	!LO:N:vis=1.	!	!	!	!	!
2D	-nus	[y0.A	de-	2d	-nus	1f	-nus
2.F	de-	.	.	2D	.	.	.
.	.	.	.	2.F	de-	2d	de-
4E-	.	.	.	.	.	.	.
1D	.	.	.	.	.	1f	.
.	.	.	.	4G	.	.	.
.	.	.	.	4A	.	.	.
.	.	.	.	4B-	.	.	.
2C	.	.	.	[2c	-us,	2g	.
=30	=30	=30-	=30	=30	=30	=30	=30
2AA	.	0.A]yy	.	2c]	.	1a	.
1D	.	.	.	1r	.	.	.
.	.	.	.	.	.	2d	.
!	!	!	!	!LO:TX:Z=12:t=MS&colon; sb	!	!	!
2C	.	.	.	2c	de-	2e	.
1D	.	.	.	2A	.	1f	.
.	.	.	.	[2d	.	.	.
=31	=31	=31-	=31	=31	=31	=31	=31
!	!	!LO:N:vis=1.	!	!	!	!	!
2BB-	.	[y0.G	-us	2d]	.	2g	.
1GG	.	.	.	2B-	.	2.b-	.
.	.	.	.	2G	.	.	.
.	.	.	.	.	.	4a	.
1C	.	.	.	1e-Xi	.	2.g	.
.	.	.	.	.	.	4f	.
2BB-	.	.	.	2d	.	2d	.
=32	=32	=32-	=32	=32	=32	=32	=32
1C	.	0.G]yy	.	2.c	.	1e-Xi	-us
.	.	.	.	8B-/L	.	.	.
.	.	.	.	8A/J	.	.	.
0GG	-us,	.	.	1B-	-us	2r	.
.	.	.	.	.	.	1d	sa-
.	.	.	.	1d	.	.	.
.	.	.	.	.	.	2g	.
=33	=33	=33	=33	=33	=33	=33	=33
!	!	!LO:N:vis=1	!	!	!	!	!
0.r	.	[y0.d	sa-	1r	.	2f	.
.	.	.	.	.	.	1b-	-ba-
.	.	.	.	1.D	sa-	.	.
.	.	.	.	.	.	2a	.
.	.	.	.	.	.	2f	.
.	.	.	.	2E	.	2g	.
=34	=34	=34-	=34	=34	=34	=34	=34
1D	de-	1d]yy	.	2F	.	2a	.
.	.	.	.	2G	.	2b-	.
1AA	-us,	0c	-ba-	2A	-ba-	2.cc	.
.	.	.	.	4G	.	.	.
.	.	.	.	4F	.	4b-	.
!LO:TX:Z=12:t=MS&colon; 2 sb r	!	!	!	!	!	!	!
1r	.	.	.	1E	.	1g	.
=35	=35	=35-	=35	=35	=35	=35	=35
1F	de-	0d	-oth,	1D	-oth,	1a	.
1D	-us	.	.	1r	.	1.f	.
!	!	!LO:N:vis=2	!	!	!	!	!
1r	.	[y1B-	sa-	1d	sa-	.	.
.	.	.	.	.	.	2d	.
=36	=36	=36-	=36	=36	=36	=36	=36
1GG	sa-	1B-]yy	.	2G	.	1d	-oth,
.	.	.	.	1d	.	.	.
2BB-	.	0G	.	.	.	1r	.
2C	.	.	.	2e-Xi	.	.	.
1E-	.	.	.	2c	-ba-	1g	sa-
.	.	.	.	4B-	.	.	.
.	.	.	.	4c	.	.	.
=37	=37	=37	=37	=37	=37	=37	=37
!	!	!LO:N:vis=1.	!	!	!	!	!
1D	.	[y0.A	-ba-	1d	-oth,	1f	.
2C	.	.	.	2r	.	2e	.
2.F	-ba-	.	.	2c	sa-	2.a	-ba-
.	.	.	.	2f	.	.	.
4E-	.	.	.	.	.	4b-	.
2C	.	.	.	[2e	-ba-	[2cc	.
=38	=38	=38-	=38	=38	=38	=38	=38
2AA	.	0.A]yy	.	2e]	.	4cc]	.
.	.	.	.	.	.	4b-	.
1D	.	.	.	1d	-oth,	4a	.
.	.	.	.	.	.	4g	.
.	.	.	.	.	.	2f	.
2C	.	.	.	2r	.	2.g	.
1D	-oth,	.	.	[1d	sa-	.	.
.	.	.	.	.	.	4f#Xi	.
.	.	.	.	.	.	4f#Xi	.
.	.	.	.	.	.	4e	.
=39	=39	=39-	=39	=39	=39	=39	=39
2r	.	[0.Gl	-oth.	2d]	.	[0.gl	-oth.
2.E-	sa-	.	.	2B-	.	.	.
.	.	.	.	2c	.	.	.
4D	.	.	.	.	.	.	.
2BB-	.	.	.	2d	.	.	.
1C	-ba-	.	.	[1e-Xi	-ba-	.	.
=40	=40	=40-	=40	=40	=40	=40	=40
0.GGl	-oth.	0.G]	.	2e-]	.	0.g]	.
.	.	.	.	4d	.	.	.
.	.	.	.	4c	.	.	.
.	.	.	.	0B- 0dl	-oth.	.	.
!!LO:LB:i:g=z
*	*	*rscale:1	*	*	*	*	*
=41||	=41||	=41||	=41||	=41||	=41||	=41||	=41||
*>B	*>B	*>B	*>B	*>B	*>B	*>B	*>B
*clefF4	*	*clefGv2	*	*clefGv2	*	*clefG2	*
*k[b-e-]	*	*k[b-]	*	*k[b-]	*	*k[b-]	*
*M2/1	*	*M2/1	*	*M2/1	*	*M2/1	*
*met(O2)	*	*met(O2)	*	*met(O2)	*	*met(O2)	*
*MM400	*	*MM400	*	*MM400	*	*MM400	*
!!section: Pleni
!!!OMD: Pleni
0r	.	0r	.	1r	.	0r	.
.	.	.	.	[1D	Ple-	.	.
=42.	=42.	=42.	=42.	=42.	=42.	=42.	=42.
0r	.	0r	.	2D]	.	0r	.
.	.	.	.	2E	.	.	.
.	.	.	.	1F	.	.	.
=43.	=43.	=43.	=43.	=43.	=43.	=43.	=43.
1.GG	Ple-	0r	.	1.G	.	0r	.
2AA	.	.	.	2F	.	.	.
=44	=44	=44	=44	=44	=44	=44	=44
1BB-	.	0r	.	1G	.	0r	.
[1C	.	.	.	[1A	.	.	.
=45.	=45.	=45.	=45.	=45.	=45.	=45.	=45.
2C]	.	0r	.	2A]	.	0r	.
2BB-	.	.	.	4G	.	.	.
.	.	.	.	4F	.	.	.
1C	.	.	.	1E	.	.	.
=46.	=46.	=46.	=46.	=46.	=46.	=46.	=46.
1.D	.	0r	.	1.D	.	0r	.
!LO:TX:a:t=MS&colon;C minim	!	!	!	!	!	!	!
4C	.	.	.	2E	.	.	.
4BB-	.	.	.	.	.	.	.
=47	=47	=47	=47	=47	=47	=47	=47
1AA	.	0r	.	1F	.	0r	.
[1GG	.	.	.	1G	-ni	.	.
=48.	=48.	=48.	=48.	=48.	=48.	=48.	=48.
2GG]	.	0r	.	1r	.	0r	.
2AA	.	.	.	.	.	.	.
1BB-	.	.	.	1D	sunt	.	.
=49.	=49.	=49.	=49.	=49.	=49.	=49.	=49.
1C	-ni	0r	.	1E	.	0r	.
1r	.	.	.	1F	.	.	.
=50	=50	=50	=50	=50	=50	=50	=50
1.GG	sunt	0r	.	1.G	ce-	0r	.
2AA	.	.	.	2F	.	.	.
=51.	=51.	=51.	=51.	=51.	=51.	=51.	=51.
1BB-	.	0r	.	1G	.	0r	.
[1C	ce-	.	.	1A	.	.	.
=52.	=52.	=52.	=52.	=52.	=52.	=52.	=52.
2C]	.	0r	.	1G	.	0r	.
2BB-	.	.	.	.	.	.	.
1C	.	.	.	[1c	.	.	.
=53	=53	=53	=53	=53	=53	=53	=53
1D	.	0r	.	2c]	.	0r	.
.	.	.	.	2B-	.	.	.
1C	.	.	.	1c	.	.	.
=54.	=54.	=54.	=54.	=54.	=54.	=54.	=54.
1.F	.	0r	.	1.d	.	0r	.
2E-	.	.	.	4c	.	.	.
.	.	.	.	4B-	.	.	.
=55.	=55.	=55.	=55.	=55.	=55.	=55.	=55.
1F	.	0r	.	1A	.	0r	.
[1G	.	.	.	2G	.	.	.
.	.	.	.	[2B-	.	.	.
=56	=56	=56	=56	=56	=56	=56	=56
2G]	.	0r	.	2B-]	.	0r	.
2F	.	.	.	2c	.	.	.
1D	.	.	.	1d	.	.	.
=57.	=57.	=57.	=57.	=57.	=57.	=57.	=57.
1C	.	0r	.	1e-Xi	.	0r	.
1F	.	.	.	[1d	.	.	.
=58.	=58.	=58.	=58.	=58.	=58.	=58.	=58.
0E-	-li,	0r	.	1d]	.	0r	.
.	.	.	.	1c	.	.	.
=59	=59	=59	=59	=59	=59	=59	=59
1r	.	0r	.	[0d	-li,	0r	.
[1D	ple-	.	.	.	.	.	.
=60.	=60.	=60.	=60.	=60.	=60.	=60.	=60.
2D]	.	0r	.	0d_	.	0r	.
2Eni	.	.	.	.	.	.	.
1F	.	.	.	.	.	.	.
=61.	=61.	=61.	=61.	=61.	=61.	=61.	=61.
1.G	.	0r	.	0d]	.	1r	.
.	.	.	.	.	.	[1d	Ple-
2F	.	.	.	.	.	.	.
=62	=62	=62	=62	=62	=62	=62	=62
1G	.	0r	.	0r	.	2d]	.
.	.	.	.	.	.	2e	.
1A	.	.	.	.	.	1f	.
=63.	=63.	=63.	=63.	=63.	=63.	=63.	=63.
1.B-	.	0r	.	1.G	ple-	1.g	.
2A	.	.	.	2A	.	2f	.
=64.	=64.	=64.	=64.	=64.	=64.	=64.	=64.
1G	.	0r	.	1B-	.	1g	.
[1F	.	.	.	[1c	.	[1a	.
=65	=65	=65	=65	=65	=65	=65	=65
2F]	.	0r	.	2c]	.	2a]	.
2G	.	.	.	2B-	.	4g	.
.	.	.	.	.	.	4f	.
1A	.	.	.	1c	.	1e	.
=66.	=66.	=66.	=66.	=66.	=66.	=66.	=66.
0D	-ni	0r	.	1.d	.	1.d	.
.	.	.	.	4c	.	2e	.
.	.	.	.	4B-	.	.	.
=67.	=67.	=67.	=67.	=67.	=67.	=67.	=67.
1r	.	0r	.	1A	.	1f	.
[1E-	sunt	.	.	[1G	.	1g	-ni
=68	=68	=68	=68	=68	=68	=68	=68
2E-]	.	0r	.	2G]	.	1r	.
2F	.	.	.	2A	.	.	.
1G	.	.	.	1B-	.	1d	sunt
=69.	=69.	=69.	=69.	=69.	=69.	=69.	=69.
1C	ce-	0r	.	1c	-ni	1e	.
1D	.	.	.	1r	.	1f	.
=70.	=70.	=70.	=70.	=70.	=70.	=70.	=70.
1GG	-li,	0r	.	1.G	sunt	1.g	ce-
1r	.	.	.	.	.	.	.
.	.	.	.	2A	.	2f	.
=71	=71	=71	=71	=71	=71	=71	=71
1G	ce-	0r	.	1B-	ce-	1g	.
1F	.	.	.	1c	.	1a	.
=72.	=72.	=72.	=72.	=72.	=72.	=72.	=72.
1D	.	0r	.	1d	.	1f	.
1E-	.	.	.	1B-	.	1g	-li,
=73.	=73.	=73.	=73.	=73.	=73.	=73.	=73.
1C	.	0r	.	1.c	.	1r	.
[1F	-li,	.	.	.	.	[1a	ce-
.	.	.	.	2B-	.	.	.
=74	=74	=74	=74	=74	=74	=74	=74
1F]	.	0r	.	2A	.	2a]	.
.	.	.	.	2G	.	2b-	.
1r	.	.	.	1A	.	[1cc	.
=75.	=75.	=75.	=75.	=75.	=75.	=75.	=75.
1r	.	0r	.	1.F	.	2cc]	.
.	.	.	.	.	.	2b-	.
[1F	ce-	.	.	.	.	2a	.
.	.	.	.	2E	.	2g	.
=76.	=76.	=76.	=76.	=76.	=76.	=76.	=76.
2F]	.	0r	.	2D	.	1a	.
2Eni	.	.	.	2C	.	.	.
2D	.	.	.	1D	.	[1f	.
2C	.	.	.	.	.	.	.
=77	=77	=77	=77	=77	=77	=77	=77
1D	.	0r	.	1.F	.	2f]	.
.	.	.	.	.	.	2e	.
[1F	.	.	.	.	.	2d	.
.	.	.	.	2E	.	2c	.
=78.	=78.	=78.	=78.	=78.	=78.	=78.	=78.
2F]	.	0r	.	1D	.	1d	.
2Eni	.	.	.	.	.	.	.
1D	-li	.	.	[1A	.	[1f	.
=79.	=79.	=79.	=79.	=79.	=79.	=79.	=79.
1.A	et	0r	.	2A]	.	2f]	.
.	.	.	.	2G	.	2e	.
.	.	.	.	2F	.	1d	-li
2G	.	.	.	2E	.	.	.
=80	=80	=80	=80	=80	=80	=80	=80
2F	.	0r	.	1D	-li	1r	.
2Eni	.	.	.	.	.	.	.
[1D	.	.	.	1r	.	[1a	et
=81.	=81.	=81.	=81.	=81.	=81.	=81.	=81.
1D]	.	0r	.	1.A	et	2a]	.
.	.	.	.	.	.	2g	.
1r	.	.	.	.	.	2f	.
.	.	.	.	2G	.	2e	.
=82.	=82.	=82.	=82.	=82.	=82.	=82.	=82.
1BB-	ter-	0r	.	1B-	.	1d	.
[1F	.	.	.	1A	.	[1c	ter-
=83	=83	=83	=83	=83	=83	=83	=83
2F]	.	0r	.	1.F	ter-	2c]	.
2Eni	.	.	.	.	.	2B-	.
1D	.	.	.	.	.	[1A	.
.	.	.	.	2E	.	.	.
=84.	=84.	=84.	=84.	=84.	=84.	=84.	=84.
1F	.	0r	.	1D	.	2A]	.
.	.	.	.	.	.	2B-	.
1G	.	.	.	1C	.	1c	.
=85.	=85.	=85.	=85.	=85.	=85.	=85.	=85.
1A	.	0r	.	1F	.	1d	.
!LO:TX:X=15:Z=12:t=MS&colon; f sb	!	!	!	!	!	!	!
1Eni	.	.	.	1G	.	1e	.
=86	=86	=86	=86	=86	=86	=86	=86
1D	-ra,	0r	.	1A	.	1f	-ra,
[1E-	ter-	.	.	1G	.	[1g	ter-
=87.	=87.	=87.	=87.	=87.	=87.	=87.	=87.
2E-]	.	0r	.	0B-	.	2g]	.
2D	.	.	.	.	.	2f	.
1BB-	.	.	.	.	.	1d	.
=88.	=88.	=88.	=88.	=88.	=88.	=88.	=88.
[0F	.	0r	.	0A	-ra,	1c	.
.	.	.	.	.	.	[1f	.
=89	=89	=89	=89	=89	=89	=89	=89
1F]	.	0r	.	1D	ter-	1f]	.
1G	.	.	.	1C	.	[1e	.
=90.	=90.	=90.	=90.	=90.	=90.	=90.	=90.
0A	.	0r	.	0F	.	2e]	.
.	.	.	.	.	.	2d	.
.	.	.	.	.	.	[1d	.
=91.	=91.	=91.	=91.	=91.	=91.	=91.	=91.
!LO:TX:Z=12:t=Note not in MS	!	!	!	!	!	!	!
0G	.	0r	.	0E	.	2d]	.
.	.	.	.	.	.	2c#Xi	.
.	.	.	.	.	.	2c#Xi	.
.	.	.	.	.	.	2Bni	.
=92	=92	=92	=92	=92	=92	=92	=92
0Al	-ra.	0r	.	0Dl	-ra.	0dl	-ra.
!!LO:LB:i:g=z
=93||	=93||	=93||	=93||	=93||	=93||	=93||	=93||
*>C	*>C	*>C	*>C	*>C	*>C	*>C	*>C
*clefF4	*	*clefGv2	*	*clefGv2	*	*clefG2	*
*k[b-e-]	*	*k[b-]	*	*k[b-]	*	*k[b-]	*
*M2/1	*	*M2/1	*	*M2/1	*	*M2/1	*
*met(O2)	*	*met(O2)	*	*met(O2)	*	*met(O2)	*
!!section: Gloria tua
!!!OMD: Gloria tua
!	!	!	!	!LO:TX:X=-40:Z=32:t=MS&colon; altus lacking. Completion by JR	!	!	!
0r	.	0r	.	0e-Xi	Glo-	0r	.
=94.	=94.	=94.	=94.	=94.	=94.	=94.	=94
0B-	Glo-	0r	.	0d	-ri-	0r	.
=95.	=95.	=95.	=95.	=95.	=95.	=95.	=95
0A	-ri-	0r	.	0c	-a,	0r	.
=96	=96	=96	=96	=96	=96	=96	=96
0G	-a,	0r	.	0B-	.	0r	.
=97.	=97.	=97.	=97.	=97.	=97.	=97.	=97
0F	.	0r	.	1r	.	0r	.
.	.	.	.	1A	glo-	.	.
=98.	=98.	=98.	=98.	=98.	=98.	=98.	=98
1r	.	0r	.	0G	.	0b-	Glo-
1G	glo-	.	.	.	.	.	.
=99	=99	=99	=99	=99	=99	=99	=99
1D	.	0r	.	0F	.	0a	-ri-
1F	.	.	.	.	.	.	.
=100.	=100.	=100.	=100.	=100.	=100.	=100.	=100
0E-	.	0r	.	0G	.	0g	-a,
=101.	=101.	=101.	=101.	=101.	=101.	=101.	=101
1.D	.	0r	.	1A	.	0f	.
.	.	.	.	[1d	.	.	.
2E-	.	.	.	.	.	.	.
=102	=102	=102	=102	=102	=102	=102	=102
1F	.	0r	.	2d]	.	1r	.
.	.	.	.	2c	.	.	.
1G	.	.	.	2B-	.	1g	glo-
.	.	.	.	4A	.	.	.
.	.	.	.	4G	.	.	.
=103.	=103.	=103.	=103.	=103.	=103.	=103.	=103
1D	.	0r	.	1F	.	1.a	.
[1F	.	.	.	[1A	.	.	.
.	.	.	.	.	.	2b-	.
=104.	=104.	=104.	=104.	=104.	=104.	=104.	=104
2F]	.	0r	.	2A]	.	1.cc	.
2E-	.	.	.	2B-	.	.	.
1C	.	.	.	[1c	-ri-	.	.
.	.	.	.	.	.	2b-	.
=105	=105	=105	=105	=105	=105	=105	=105
0E-	-ri-	0r	.	2c]	.	0g	-ri-
.	.	.	.	2B-	.	.	.
.	.	.	.	2G	.	.	.
.	.	.	.	2A	.	.	.
=106.	=106.	=106.	=106.	=106.	=106.	=106.	=106
0D	-a	0r	.	2B-	-a	0f	-a
.	.	.	.	2c	.	.	.
.	.	.	.	2d	.	.	.
.	.	.	.	4c	.	.	.
.	.	.	.	4d	.	.	.
=107.	=107.	=107.	=107.	=107.	=107.	=107.	=107
0G	.	0r	.	1.e-X	tu-	0b-	tu-
.	.	.	.	2d	.	.	.
=108	=108	=108	=108	=108	=108	=108	=108
1r	.	0r	.	1c	.	1a	.
1C	tu-	.	.	1e-X	.	1g	.
=109.	=109.	=109.	=109.	=109.	=109.	=109.	=109
1D	.	0r	.	0d	.	1f	.
1BB-	.	.	.	.	.	1b-	.
=110.	=110.	=110.	=110.	=110.	=110.	=110.	=110
0F	.	0r	.	1.c	.	1.a	.
.	.	.	.	2B-	.	2f	.
=111	=111	=111	=111	=111	=111	=111	=111
1E-	.	0r	.	0G	-a,	1g	.
1C	.	.	.	.	.	1e	.
=112.	=112.	=112.	=112.	=112.	=112.	=112.	=112
1F	.	0r	.	1r	.	1d	.
1E-	.	.	.	1G	tu-	[1g	.
=113.	=113.	=113.	=113.	=113.	=113.	=113.	=113
0D	-a,	0r	.	0A	.	1g]	.
.	.	.	.	.	.	1f	.
=114	=114	=114	=114	=114	=114	=114	=114
1r	.	0r	.	1B-	.	1g	.
1D	tu-	.	.	2F	.	[1a	.
.	.	.	.	2G	.	.	.
=115.	=115.	=115.	=115.	=115.	=115.	=115.	=115
1F	.	0r	.	2A	.	2a]	.
.	.	.	.	2B-	.	4g	.
.	.	.	.	.	.	4f	.
1C	.	.	.	1c	.	1e	.
=116.	=116.	=116.	=116.	=116.	=116.	=116.	=116
1.D	.	0r	.	1A	-a,	1f	-a,
.	.	.	.	[1d	glo-	1d	.
2C	.	.	.	.	.	.	.
=117	=117	=117	=117	=117	=117	=117	=117
2BB-	.	0r	.	2d]	.	1r	.
2AA	.	.	.	2c	.	.	.
1GG	-a,	.	.	1B-	.	1g	glo-
=118.	=118.	=118.	=118.	=118.	=118.	=118.	=118
1r	.	0r	.	1A	-ri-	1f	-ri-
[1G	tu-	.	.	1d	-a	[1b-	-a
=119.	=119.	=119.	=119.	=119.	=119.	=119.	=119
1G]	.	0r	.	1B-	.	1b-]	.
[1F	.	.	.	[1c	tu-	[1a	tu-
=120	=120	=120	=120	=120	=120	=120	=120
2F]	.	0r	.	2c]	.	2a]	.
2G	.	.	.	2B-	.	2b-	.
[1A	.	.	.	2A	.	[1cc	.
.	.	.	.	2G	.	.	.
=121.	=121.	=121.	=121.	=121.	=121.	=121.	=121
2A]	.	0r	.	1.F	.	2cc]	.
2G	.	.	.	.	.	2b-	.
2F	.	.	.	.	.	2a	.
2E-	.	.	.	2G	.	2g	.
=122.	=122.	=122.	=122.	=122.	=122.	=122.	=122
1D	-a,	0r	.	1A	-a,	1.f	.
[1F	tu-	.	.	1D	tu-	.	.
.	.	.	.	.	.	2g	.
=123	=123	=123	=123	=123	=123	=123	=123
2F]	.	0r	.	1.F	.	1a	-a,
2G	.	.	.	.	.	.	.
1A	.	.	.	.	.	1d	.
.	.	.	.	2G	.	.	.
=124.	=124.	=124.	=124.	=124.	=124.	=124.	=124
1D	.	0r	.	1A	.	1r	.
1G	.	.	.	1B-	.	[1g	tu-
=125.	=125.	=125.	=125.	=125.	=125.	=125.	=125
0D	.	0r	.	0A	.	2g]	.
.	.	.	.	.	.	4f#Xi	.
.	.	.	.	.	.	4g	.
.	.	.	.	.	.	2f#Xi	.
.	.	.	.	.	.	2e	.
=126	=126	=126	=126	=126	=126	=126	=126
0GGl	-a.	0r	.	0Gl	-a.	0gl	-a.
!!LO:LB:i:g=z
=127||	=127||	=127||	=127||	=127||	=127||	=127||	=127||
*>D	*>D	*>D	*>D	*>D	*>D	*>D	*>D
*clefF4	*	*clefGv2	*	*clefGv2	*	*clefG2	*
*k[b-e-]	*	*k[b-]	*	*k[b-]	*	*k[b-]	*
*M3/1	*	*M3/1	*	*M3/1	*	*M3/1	*
*met(O)	*	*met(C.)	*	*met(O)	*	*met(O)	*
*MM300	*	*MM300	*	*MM300	*	*MM300	*
*	*	*rscale:1/2	*	*	*	*	*
!!section: Osanna I
!!!OMD: Osanna I
!	!	!LO:TX:X=-40:Z=4:t=T&colon; Initially twofold aug., evidently altering the second of pairs of minims.	!	!	!	!	!
!	!	!LO:TX:X=-40:Z=24:t=T&colon; ``Cantandus tenor est triplaris notaque pausa Sed clausulando decrescere bene canendo''	!	!	!	!	!
0.G	O-	1r	.	[0.d	O-	0.g	O-
.	.	0G	O-	.	.	.	.
=128	=128	=128-	=128	=128	=128	=128	=128
0D	-san-	1d	-san-	1d]	.	0f	-san-
.	.	0d	-na,	1A	-san-	.	.
1BB-	.	.	.	1B-	.	1b-	.
=129	=129	=129	=129	=129	=129	=129	=129
!LO:TX:Z=12:t=MS&colon; G	!	!	!	!	!	!	!
1FF	.	1c	.	1c	.	1a	.
0C	.	0c	o-	1.e-Xi	.	0g	.
.	.	.	.	2d	.	.	.
=130	=130	=130-	=130	=130	=130	=130	=130
0.D	.	1A	-san-	0d	-na,	1f	-na,
.	.	0A	-na,	.	.	2r	.
.	.	.	.	.	.	2.f	o-
.	.	.	.	2r	.	.	.
.	.	.	.	.	.	4e	.
.	.	.	.	[2d	o-	2f	.
=131	=131	=131	=131	=131	=131	=131	=131
1GG	-na,	1.G	.	2d]	.	2.g	-san-
.	.	.	.	2B-	.	.	.
.	.	.	.	.	.	8fL	.
.	.	.	.	.	.	8eJ	.
!	!	!	!	!LO:TX:Z=12:t=MS&colon; 2 m	!	!	!
2r	.	.	.	2.d	.	2.d	.
2D	o-	1.F	.	.	.	.	.
.	.	.	.	4e	.	4c	.
[1D	-san-	.	.	2f	-san-	2d	-na,
.	.	.	.	[2d	.	2A	.
=132	=132	=132-	=132	=132	=132	=132	=132
2D]	.	0.D	o-	4d]	.	2r	.
.	.	.	.	4c	.	.	.
2BB-	.	.	.	2d	.	2.d	o-
2D	.	.	.	1A	-na,	.	.
.	.	.	.	.	.	4c	.
2Eni	.	.	.	.	.	2A	.
1F	.	.	.	2r	.	2.B-	-san-
.	.	.	.	2D	o-	.	.
.	.	.	.	.	.	4A	.
=133	=133	=133	=133	=133	=133	=133	=133
0.G	.	0.C	-san-	2E	.	2c	.
.	.	.	.	2F	.	2d	.
.	.	.	.	1G	.	1.e	.
.	.	.	.	1G	-san-	.	.
.	.	.	.	.	.	2d	.
=134	=134	=134-	=134	=134	=134	=134	=134
1D	.	1F	.	1A	-na,	1.d	.
0E-	.	0G	.	1r	.	.	.
.	.	.	.	.	.	4c	.
.	.	.	.	.	.	4B-	.
.	.	.	.	1G	in	1c	.
=135	=135	=135	=135	=135	=135	=135	=135
0.D	.	0.A	-na	0F	.	1d	-na
.	.	.	.	.	.	1r	.
.	.	.	.	1r	.	[1f	in
=136	=136	=136-	=136	=136	=136	=136	=136
1BB-	-na	0.B-	in	2.D	ex-	2f]	.
.	.	.	.	.	.	2g	.
.	.	.	.	4E	.	.	.
2r	.	.	.	2F	.	2f	ex-
2GG	in	.	.	1G	-cel-	2.b-	-cel-
1GG	ex-	.	.	.	.	.	.
.	.	.	.	.	.	4a	.
.	.	.	.	[2d	.	2g	.
=137	=137	=137	=137	=137	=137	=137	=137
1D	-cel-	1A	ex-	4d]	.	1f	-sis,
.	.	.	.	4c	.	.	.
.	.	.	.	2.d	.	.	.
!LO:TX:Z=12:t=MS&colon; f	!	!	!	!	!	!	!
1E-	.	0G	.	.	.	2r	.
.	.	.	.	4c	.	.	.
.	.	.	.	4A	.	2g	ex-
.	.	.	.	4B-	.	.	.
1C	.	.	.	1c	-sis,	2.e	-cel-
.	.	.	.	.	.	4d	.
=138	=138	=138-	=138	=138	=138	=138	=138
!	!	!	!	!LO:TX:Z=12:t=MS&colon; a-b-c' md sm m	!	!	!
1D	.	1F	-cel-	2A	in	2f	.
.	.	.	.	2B-	.	2g	.
0F	.	0D	.	2A	ex-	0a	-sis,
.	.	.	.	2.d	-cel-	.	.
.	.	.	.	4c	.	.	.
.	.	.	.	4B-	.	.	.
.	.	.	.	4A	.	.	.
=139	=139	=139	=139	=139	=139	=139	=139
*	*	*	*	*M3/1	*	*	*
*	*	*	*	*met(3)	*	*	*
1G	-sis,	0.E-Xi	-sis,	3G	.	1r	.
.	.	.	.	3A	.	.	.
.	.	.	.	3B-	.	.	.
1r	.	.	.	3c	.	1.g	in
.	.	.	.	3d	.	.	.
.	.	.	.	3e-Xi	.	.	.
1G	ex-	.	.	3d	.	.	.
.	.	.	.	3B-	.	.	.
.	.	.	.	.	.	4f	.
.	.	.	.	3c	.	.	.
.	.	.	.	.	.	4e	.
=140	=140	=140	=140	=140	=140	=140	=140
*	*	*M3/1	*	*M3/1	*	*	*
*	*	*met(O)	*	*met(O)	*	*	*
!LO:TX:Z=12:t=MS&colon; 2 void br	!	!LO:TX:Z=12:t=T&colon; No augmentation	!	!	!	!	!
*	*	*rscale:1	*	*	*	*	*
0A	-cel-	0D	.	1.d	-sis,	1f	.
.	.	.	.	.	.	1.f	ex-
.	.	.	.	4c	.	.	.
.	.	.	.	4B-	.	.	.
[1D	-sis,	2r	.	1A	.	.	.
.	.	2D	o-	.	.	2d	.
=141	=141	=141	=141	=141	=141	=141	=141
1D]	.	2A	-san-	1rB	.	2.f	-cel-
.	.	2A	-na	.	.	.	.
.	.	.	.	.	.	4g	.
1r	.	2c	in	2.F	ex-	1a	.
.	.	2c	ex-	.	.	.	.
.	.	.	.	8EL	.	.	.
.	.	.	.	8FJ	.	.	.
1GG	in	1G	-cel-	4E	-cel-	1b-	.
.	.	.	.	4D	.	.	.
.	.	.	.	2D	-sis,	.	.
=142	=142	=142	=142	=142	=142	=142	=142
1D	.	1F	.	2r	.	1.a	.
.	.	.	.	2d	ex-	.	.
1F	.	1A	.	2c	-cel-	.	.
.	.	.	.	2A	.	1f	.
!	!	!	!	!LO:TX:Z=12:t=MS&colon; g	!	!	!
2r	.	1d	.	2B-	.	.	.
2BB-	ex-	.	.	2F	-sis,	[2b-	.
=143	=143	=143	=143	=143	=143	=143	=143
1F	-cel-	2c	.	2r	.	4b-]	.
.	.	.	.	.	.	4a	.
.	.	2A	.	2f	ex-	2a	.
1G	-sis,	1B-	-sis,	4e	-cel-	2.g	.
.	.	.	.	2d	.	.	.
.	.	.	.	4B-	.	4f	.
2r	.	1A	.	2c	.	[1a	-sis,
2D	ex-	.	.	[2d	.	.	.
=144	=144	=144	=144	=144	=144	=144	=144
2.F	-cel-	2r	.	4d]	.	1a]	.
.	.	.	.	4c	.	.	.
.	.	2A	in	2A	-sis,	.	.
4E-	.	.	.	.	.	.	.
1C	.	2c	.	2G	.	1r	.
.	.	2c	ex-	2.e-Xi	in	.	.
1E-	.	1G	.	.	.	1b-	in
.	.	.	.	4d	.	.	.
.	.	.	.	2e-Xi	ex-	.	.
=145	=145	=145	=145	=145	=145	=145	=145
1D	-sis,	1d	-cel-	2f	-cel-	2a	.
.	.	.	.	2.d	.	2f	.
2r	.	1e-Xi	.	.	.	1g	.
.	.	.	.	4c	.	.	.
2C	ex-	.	.	2c	.	.	.
2D	-cel-	1d	.	2A	.	2.f	ex-
2BB-	.	.	.	2B-	.	.	.
.	.	.	.	.	.	4g	.
=146	=146	=146.	=146	=146	=146	=146	=146
2F	.	2c	.	2c	.	2a	.
2BB-	.	2d	.	2B-	.	2.b-	-cel-
!LO:TX:Z=12:t=MS&colon; d c	!	!	!	!	!	!	!
1E-	.	2B-	.	4G	.	.	.
.	.	.	.	2B-	.	4a	.
.	.	2G	.	.	.	2.g	.
.	.	.	.	4c	.	.	.
1D	.	1A	.	[1d	.	.	.
.	.	.	.	.	.	4f#Xi	.
.	.	.	.	.	.	4f#Xi	.
.	.	.	.	.	.	4e	.
=147	=147	=147	=147	=147	=147	=147	=147
[0.GGl	-sis.	[0.Gl	-sis.	2d]	.	[0.gl	-sis.
.	.	.	.	2B-	.	.	.
.	.	.	.	0B-	-sis.	.	.
=148	=148	=148.	=148	=148	=148	=148	=148
0.GG]	.	0.G]	.	0.dl	.	0.g]	.
!!LO:LB:i:g=z
*	*	*rscale:1	*	*	*	*	*
=149||	=149||	=149||	=149||	=149||	=149||	=149||	=149||
*>E	*>E	*>E	*>E	*>E	*>E	*>E	*>E
*clefF4	*	*clefGv2	*	*clefGv2	*	*clefG2	*
*k[b-e-]	*	*k[b-]	*	*k[b-]	*	*k[b-]	*
*M2/1	*	*M2/1	*	*M2/1	*	*M2/1	*
*met(C|)	*	*met(C|)	*	*met(C|)	*	*met(C|)	*
*MM400	*	*MM400	*	*MM400	*	*MM400	*
!!section: Benedictus
!!!OMD: Benedictus
0r	.	0r	.	1.D	Be-	0r	.
.	.	.	.	2E	.	.	.
=150	=150	=150	=150	=150	=150	=150	=150
0r	.	0r	.	1F	.	0r	.
.	.	.	.	1G	-ne-	.	.
=151	=151	=151	=151	=151	=151	=151	=151
0r	.	0r	.	1.A	-dic-	0r	.
.	.	.	.	4G	.	.	.
.	.	.	.	4A	.	.	.
=152	=152	=152	=152	=152	=152	=152	=152
0r	.	0r	.	1.B-	.	1.d	Be-
.	.	.	.	4A	.	2e	.
.	.	.	.	4G	.	.	.
=153	=153	=153	=153	=153	=153	=153	=153
0r	.	0r	.	1F	.	1f	.
.	.	.	.	1B-	.	1g	-ne-
=154	=154	=154	=154	=154	=154	=154	=154
0r	.	0r	.	1c	.	1.a	-dic-
.	.	.	.	[1d	.	.	.
!	!	!	!	!	!	!LO:TX:Z=12:t=MS&colon; g' m	!
.	.	.	.	.	.	4g	.
.	.	.	.	.	.	4a	.
=155	=155	=155	=155	=155	=155	=155	=155
0r	.	0r	.	1d]	.	1.b-	.
.	.	.	.	1G	.	.	.
.	.	.	.	.	.	4a	.
.	.	.	.	.	.	4g	.
=156	=156	=156	=156	=156	=156	=156	=156
0r	.	0r	.	0d	-tus,	1f	.
.	.	.	.	.	.	[1b-	.
=157	=157	=157	=157	=157	=157	=157	=157
0r	.	0r	.	1B-	be-	1b-]	.
.	.	.	.	1c	-ne	1a	.
=158	=158	=158	=158	=158	=158	=158	=158
0r	.	0r	.	1e-Xi	dic-	1g	.
.	.	.	.	[1d	.	1f	.
=159	=159	=159	=159	=159	=159	=159	=159
0r	.	0r	.	2d]	.	1b-	.
.	.	.	.	2B-	.	.	.
.	.	.	.	1c	.	[1a	.
=160	=160	=160	=160	=160	=160	=160	=160
0r	.	0r	.	1A	.	2a]	.
.	.	.	.	.	.	2f	.
.	.	.	.	1B-	.	1g	.
=161	=161	=161	=161	=161	=161	=161	=161
0r	.	0r	.	1c	.	1e	.
.	.	.	.	1d	.	[1d	-tus,
=162	=162	=162	=162	=162	=162	=162	=162
0r	.	0r	.	1G	.	1d]	.
.	.	.	.	1B-	.	1g	be-
=163	=163	=163	=163	=163	=163	=163	=163
0r	.	0r	.	0A	-tus,	1a	.
.	.	.	.	.	.	1f	-ne
=164	=164	=164	=164	=164	=164	=164	=164
0r	.	0r	.	1r	.	2g	dic-
.	.	.	.	.	.	2a	.
.	.	.	.	1G	be-	1b-	.
=165	=165	=165	=165	=165	=165	=165	=165
0r	.	0r	.	1A	.	0a	-tus,
.	.	.	.	1F	-ne	.	.
=166	=166	=166	=166	=166	=166	=166	=166
0r	.	0r	.	2G	dic-	1r	.
.	.	.	.	2A	.	.	.
.	.	.	.	1B-	.	1d	be-
=167	=167	=167	=167	=167	=167	=167	=167
0r	.	0r	.	0A	-tus,	1e	.
.	.	.	.	.	.	1c	-ne
=168	=168	=168	=168	=168	=168	=168	=168
0r	.	0r	.	1r	.	1d	dic-
.	.	.	.	1D	be-	1f	.
=169	=169	=169	=169	=169	=169	=169	=169
0r	.	0r	.	1E	.	0e	-tus,
.	.	.	.	1C	-ne	.	.
=170	=170	=170	=170	=170	=170	=170	=170
0r	.	0r	.	1D	dic-	1r	.
.	.	.	.	1F	.	1A	be-
=171	=171	=171	=171	=171	=171	=171	=171
0r	.	0r	.	1G	.	1B-	-ne
.	.	.	.	[1B-	.	[1G	dic-
=172	=172	=172	=172	=172	=172	=172	=172
0r	.	0r	.	2B-]	.	2G]	.
.	.	.	.	2A	.	2A	.
.	.	.	.	1A	-tus,	1c	.
=173	=173	=173	=173	=173	=173	=173	=173
0r	.	0r	.	1r	.	0B-	.
.	.	.	.	1d	be-	.	.
=174	=174	=174	=174	=174	=174	=174	=174
0r	.	0r	.	2c	.	1A	-tus,
.	.	.	.	2A	.	.	.
.	.	.	.	2B-	.	1d	.
.	.	.	.	[2G	.	.	.
=175	=175	=175	=175	=175	=175	=175	=175
0r	.	0r	.	2G]	.	1r	.
.	.	.	.	2F	-ne	.	.
.	.	.	.	1E	dic-	1c	be-
=176	=176	=176	=176	=176	=176	=176	=176
0r	.	0r	.	1D	-tus,	2d	-ne
.	.	.	.	.	.	1f	dic-
.	.	.	.	1r	.	.	.
.	.	.	.	.	.	4e	.
.	.	.	.	.	.	4d	.
=177	=177	=177	=177	=177	=177	=177	=177
0r	.	0r	.	1c	be-	1e	.
.	.	.	.	2d	-ne	1d	-tus,
.	.	.	.	[2f	dic-	.	.
=178	=178	=178	=178	=178	=178	=178	=178
0r	.	0r	.	2f]	.	1r	.
.	.	.	.	4e	.	.	.
.	.	.	.	4d	.	.	.
.	.	.	.	1e	.	1g	be-
=179	=179	=179	=179	=179	=179	=179	=179
0r	.	0r	.	1d	-tus,	1f	-ne
.	.	.	.	1r	.	2g	dic-
.	.	.	.	.	.	[2b-	.
=180	=180	=180	=180	=180	=180	=180	=180
0r	.	0r	.	1G	be-	2b-]	.
.	.	.	.	.	.	4a	.
.	.	.	.	.	.	4g	.
.	.	.	.	1F	-ne	1a	.
=181	=181	=181	=181	=181	=181	=181	=181
0r	.	0r	.	2G	dic-	1g	-tus,
.	.	.	.	1B-	.	.	.
.	.	.	.	.	.	1r	.
.	.	.	.	4A	.	.	.
.	.	.	.	4G	.	.	.
=182	=182	=182	=182	=182	=182	=182	=182
0r	.	0r	.	1A	.	1cc	be-
.	.	.	.	1G	-tus,	1b-	-ne
=183	=183	=183	=183	=183	=183	=183	=183
0r	.	0r	.	1r	.	2a	dic-
.	.	.	.	.	.	2.g	.
.	.	.	.	1c	be-	.	.
.	.	.	.	.	.	4f	.
.	.	.	.	.	.	2e	.
=184	=184	=184	=184	=184	=184	=184	=184
0r	.	0r	.	2B-	.	2d	.
.	.	.	.	2A	.	2f	.
.	.	.	.	1G	-ne	2e	.
.	.	.	.	.	.	[2d	.
=185	=185	=185	=185	=185	=185	=185	=185
0r	.	0r	.	1B-	dic-	2d]	.
.	.	.	.	.	.	1g	.
.	.	.	.	1A	.	.	.
.	.	.	.	.	.	2f	.
=186	=186	=186	=186	=186	=186	=186	=186
0r	.	0r	.	2G	.	2g	.
.	.	.	.	2F	.	1a	.
.	.	.	.	2A	.	.	.
.	.	.	.	[2B-	.	[2g	.
=187	=187	=187	=187	=187	=187	=187	=187
0r	.	0r	.	2B-]	.	4g]	.
.	.	.	.	.	.	4f	.
.	.	.	.	2c	.	2a	.
.	.	.	.	2d	.	2b-	.
.	.	.	.	2e-Xi	.	[2cc	.
=188	=188	=188	=188	=188	=188	=188	=188
0r	.	0r	.	2c	.	2cc]	.
.	.	.	.	1d	.	2b-	.
.	.	.	.	.	.	2a	.
.	.	.	.	[2e-Xi	.	2g	.
=189	=189	=189	=189	=189	=189	=189	=189
0r	.	0r	.	1e-]	.	1.b-	.
.	.	.	.	[1d	.	.	.
.	.	.	.	.	.	[2a	.
=190	=190	=190	=190	=190	=190	=190	=190
0r	.	0r	.	2d]	.	1a]	.
.	.	.	.	1.c	-tus,	.	.
.	.	.	.	.	.	[1g	-tus,
=191	=191	=191	=191	=191	=191	=191	=191
0r	.	0r	.	1.B-	.	2g]	.
.	.	.	.	.	.	1.f	.
.	.	.	.	2A	be-	.	.
=192	=192	=192	=192	=192	=192	=192	=192
0r	.	0r	.	2G	-ne-	1b-	be-
.	.	.	.	1d	-dic-	.	.
.	.	.	.	.	.	1a	-ne
.	.	.	.	[2c	.	.	.
=193	=193	=193	=193	=193	=193	=193	=193
0r	.	0r	.	2c]	.	1g	dic-
.	.	.	.	2.B-	.	.	.
.	.	.	.	.	.	2f	.
.	.	.	.	4A	.	.	.
.	.	.	.	2G	.	2b-	.
=194	=194	=194	=194	=194	=194	=194	=194
0r	.	0r	.	2F	.	2a	.
.	.	.	.	2G	.	1g	.
.	.	.	.	1A	.	.	.
.	.	.	.	.	.	2f#Xi	.
=195	=195	=195	=195	=195	=195	=195	=195
0r	.	0r	.	0G	-tus	[0g	-tus
=196	=196	=196	=196	=196	=196	=196	=196
0r	.	0r	.	0r	.	0g]	.
=197	=197	=197	=197	=197	=197	=197	=197
[0GG	qui	0r	.	[0d	qui	0r	.
=198	=198	=198	=198	=198	=198	=198	=198
1GG]	.	0r	.	0d_	.	0r	.
[1BB-	ve-	.	.	.	.	.	.
=199	=199	=199	=199	=199	=199	=199	=199
2BB-]	.	0r	.	0d_	.	0r	.
2C	.	.	.	.	.	.	.
2D	.	.	.	.	.	.	.
2E-	.	.	.	.	.	.	.
=200	=200	=200	=200	=200	=200	=200	=200
1F	.	0r	.	0d_	.	0r	.
[1G	.	.	.	.	.	.	.
=201	=201	=201	=201	=201	=201	=201	=201
2G]	.	0r	.	0d_	.	0r	.
2F	.	.	.	.	.	.	.
2D	.	.	.	.	.	.	.
2E-	.	.	.	.	.	.	.
=202	=202	=202	=202	=202	=202	=202	=202
1F	-nit,	0r	.	0d]	.	0r	.
1BB-	.	.	.	.	.	.	.
=203	=203	=203	=203	=203	=203	=203	=203
1r	.	0r	.	[0d	ve-	0r	.
[1B-	qui	.	.	.	.	.	.
=204	=204	=204	=204	=204	=204	=204	=204
2B-]	.	0r	.	0d]	.	0r	.
2A	.	.	.	.	.	.	.
1G	.	.	.	.	.	.	.
=205	=205	=205	=205	=205	=205	=205	=205
1C	ve-	0r	.	0e-Xi	.	0r	.
[1G	.	.	.	.	.	.	.
=206	=206	=206	=206	=206	=206	=206	=206
2G]	.	0r	.	0d	.	0r	.
2F	.	.	.	.	.	.	.
!LO:TX:Z=12:t=MS&colon; 2 m	!	!	!	!	!	!	!
1D	.	.	.	.	.	.	.
=207	=207	=207	=207	=207	=207	=207	=207
2E-	.	0r	.	0c	-nit,	0r	.
1F	.	.	.	.	.	.	.
2E-	.	.	.	.	.	.	.
=208	=208	=208	=208	=208	=208	=208	=208
2G	.	0r	.	0B-	.	0r	.
2F	.	.	.	.	.	.	.
1D	.	.	.	.	.	.	.
=209	=209	=209	=209	=209	=209	=209	=209
0E-	.	0r	.	1r	.	0r	.
.	.	.	.	1c	qui	.	.
=210	=210	=210	=210	=210	=210	=210	=210
1D	-nit,	0r	.	1d	.	0r	.
!	!	!	!	!LO:TX:X:-10:Z=24:t=MS&colon; c'	!	!	!
1G	.	.	.	1B-	.	.	.
=211	=211	=211	=211	=211	=211	=211	=211
1r	.	0r	.	0e-Xi	ve-	0r	.
1C	qui-	.	.	.	.	.	.
=212	=212	=212	=212	=212	=212	=212	=212
2BB-	-ve-	0r	.	1.d	.	0r	.
1GG	.	.	.	.	.	.	.
2BB-	.	.	.	4c	.	.	.
.	.	.	.	4B-	.	.	.
=213	=213	=213	=213	=213	=213	=213	=213
1AA	-nit,	0r	.	1c	.	0r	.
1GG	.	.	.	2B-	.	.	.
.	.	.	.	[2G	.	.	.
=214	=214	=214	=214	=214	=214	=214	=214
1r	.	0r	.	2G]	.	0r	.
.	.	.	.	2B-	.	.	.
1F	qui	.	.	1A	.	.	.
=215	=215	=215	=215	=215	=215	=215	=215
1G	ve-	0r	.	2G	-nit,	0r	.
.	.	.	.	2E	.	.	.
2F	.	.	.	1D	.	.	.
[2D	.	.	.	.	.	.	.
=216	=216	=216	=216	=216	=216	=216	=216
2D]	.	0r	.	2r	.	0r	.
2F	.	.	.	1d	qui	.	.
1Eni	.	.	.	.	.	.	.
.	.	.	.	4c	.	.	.
.	.	.	.	4B-	.	.	.
=217	=217	=217	=217	=217	=217	=217	=217
0A	.	0r	.	2c	ve-	0r	.
.	.	.	.	4d	.	.	.
.	.	.	.	4e	.	.	.
.	.	.	.	[1f	.	.	.
=218	=218	=218	=218	=218	=218	=218	=218
1D	.	0r	.	2f]	.	0r	.
.	.	.	.	2e	.	.	.
[1F	.	.	.	1c	.	.	.
=219	=219	=219	=219	=219	=219	=219	=219
1F]	.	0r	.	1.d	.	0r	.
1BB-	.	.	.	.	.	.	.
.	.	.	.	2c	.	.	.
=220	=220	=220	=220	=220	=220	=220	=220
1F	.	0r	.	1A	.	0r	.
2G	.	.	.	1G	.	.	.
[2B-	.	.	.	.	.	.	.
=221	=221	=221	=221	=221	=221	=221	=221
2B-]	.	0r	.	1D	-nit,	0r	.
2A	.	.	.	.	.	.	.
2F	.	.	.	1r	.	.	.
2G	.	.	.	.	.	.	.
=222	=222	=222	=222	=222	=222	=222	=222
1A	-nit,	0r	.	1.F	qui	0r	.
[1D	.	.	.	.	.	.	.
.	.	.	.	[2B-	ve-	.	.
=223	=223	=223	=223	=223	=223	=223	=223
1D]	.	0r	.	2B-]	.	0r	.
.	.	.	.	2A	.	.	.
1r	.	.	.	2F	.	.	.
.	.	.	.	2G	.	.	.
=224	=224	=224	=224	=224	=224	=224	=224
1C	qui-	0r	.	1A	-nit,	0r	.
1BB-	.	.	.	1D	.	.	.
=225	=225	=225	=225	=225	=225	=225	=225
2C	-ve-	0r	.	1r	.	0r	.
1E-	.	.	.	.	.	.	.
.	.	.	.	1G	qui-	.	.
2C	.	.	.	.	.	.	.
=226	=226	=226	=226	=226	=226	=226	=226
1D	-nit,	0r	.	1F	-ve-	0r	.
1GG	.	.	.	2G	.	.	.
.	.	.	.	[2B-	.	.	.
=227	=227	=227	=227	=227	=227	=227	=227
1r	.	0r	.	2B-]	.	0r	.
.	.	.	.	2G	.	.	.
1FF	qui	.	.	1A	.	.	.
=228	=228	=228	=228	=228	=228	=228	=228
2GG	ve-	0r	.	2D	.	0r	.
2BB-	.	.	.	1G	.	.	.
1AA	.	.	.	.	.	.	.
.	.	.	.	2F	.	.	.
=229	=229	=229	=229	=229	=229	=229	=229
2GG	.	0r	.	2G	.	0r	.
1D	.	.	.	1B-	.	.	.
2C	.	.	.	2A	.	.	.
=230	=230	=230	=230	=230	=230	=230	=230
1E-	.	0r	.	2G	.	0r	.
.	.	.	.	2c	.	.	.
2D	.	.	.	2B-	.	.	.
2C	.	.	.	[2A	.	.	.
=231	=231	=231	=231	=231	=231	=231	=231
1F	.	0r	.	2A]	.	0r	.
.	.	.	.	2d	.	.	.
2E-	.	.	.	2c	.	.	.
2D	.	.	.	[2B-	.	.	.
=232	=232	=232	=232	=232	=232	=232	=232
2G	.	0r	.	4B-]	.	0r	.
.	.	.	.	4A	.	.	.
2F	.	.	.	1d	.	.	.
1E-	.	.	.	.	.	.	.
.	.	.	.	2c	.	.	.
=233	=233	=233	=233	=233	=233	=233	=233
[0D	-nit	0r	.	0d	-nit	0r	.
=234	=234	=234	=234	=234	=234	=234	=234
0D]	.	0r	.	0r	.	0r	.
=235	=235	=235	=235	=235	=235	=235	=235
!	!	!	!	!LO:N:vis=0.	!	!	!
0r	.	0r	.	[y3%4DV	in	[0a	in
.	.	.	.	3%2DZ]yy	.	.	.
=236	=236	=236	=236	=236	=236	=236	=236
0r	.	0r	.	3%2.FV	no-	0a_	.
.	.	.	.	3G	.	.	.
.	.	.	.	3A	.	.	.
.	.	.	.	3B-Z	.	.	.
=237	=237	=237	=237	=237	=237	=237	=237
0r	.	0r	.	3%2cV	.	0a]	.
.	.	.	.	3%4dZ	.	.	.
=238	=238	=238	=238	=238	=238	=238	=238
0r	.	0r	.	3%2GV	.	0b-	no-
.	.	.	.	3%4dZ	.	.	.
=239	=239	=239	=239	=239	=239	=239	=239
0r	.	0r	.	3%2cV	.	0a	.
.	.	.	.	3%2A	.	.	.
.	.	.	.	[3%2cZ	.	.	.
=240	=240	=240	=240	=240	=240	=240	=240
0r	.	0r	.	3%2c]V	.	0g	.
.	.	.	.	3%2B-	.	.	.
.	.	.	.	3%2GZ	.	.	.
=241	=241	=241	=241	=241	=241	=241	=241
0r	.	0r	.	3%2AV	.	3%4fV	.
.	.	.	.	3%2.B-	.	.	.
.	.	.	.	.	.	3%2gZ	.
.	.	.	.	3AZ	.	.	.
=242	=242	=242	=242	=242	=242	=242	=242
0r	.	0r	.	3%2FV	.	3%2aV	.
.	.	.	.	3%2G	.	3%2b-	.
.	.	.	.	[3%2AZ	-mi-	3%2aZ	.
=243	=243	=243	=243	=243	=243	=243	=243
0r	.	0r	.	3%2A]V	.	3%2.fV	.
.	.	.	.	3%2D	-ne,	.	.
.	.	.	.	.	.	3g	.
.	.	.	.	3%2rZ	.	[3%2aZ	-mi-
=244	=244	=244	=244	=244	=244	=244	=244
0r	.	0r	.	3%2.dV	in	3%2a]V	.
.	.	.	.	.	.	3%2d	-ne,
.	.	.	.	3B-	.	.	.
.	.	.	.	[3%2dZ	no-	3%2rZ	.
=245	=245	=245	=245	=245	=245	=245	=245
0r	.	0r	.	3d]V	.	3%2.aV	in
.	.	.	.	3c	.	.	.
.	.	.	.	3%4AZ	.	.	.
.	.	.	.	.	.	3g	.
.	.	.	.	.	.	[3%2aZ	no-
=246	=246	=246	=246	=246	=246	=246	=246
0r	.	0r	.	3%2FV	.	3a]V	.
.	.	.	.	.	.	3g	.
.	.	.	.	3%2G	.	3%2e	.
.	.	.	.	[3%2AZ	.	[3%2fZ	.
=247	=247	=247	=247	=247	=247	=247	=247
0r	.	0r	.	3A]V	.	3f]V	.
.	.	.	.	3G	.	3e	.
.	.	.	.	3%2E	.	3%2c	.
.	.	.	.	3%2FZ	.	3%2dZ	.
=248	=248	=248	=248	=248	=248	=248	=248
0r	.	0r	.	3%2GV	-mi-	3%4eV	-mi-
.	.	.	.	3%4AZ	-ne,	.	.
.	.	.	.	.	.	3%2AZ	-ne,
=249	=249	=249	=249	=249	=249	=249	=249
0r	.	0r	.	3%2DV	in	3%2B-V	in
.	.	.	.	3%2E	.	3%2c	.
.	.	.	.	3%2FZ	.	3%2dZ	.
=250	=250	=250	=250	=250	=250	=250	=250
0r	.	0r	.	3%2GV	no-	3%2eV	no-
.	.	.	.	3%2A	.	3%2f	.
.	.	.	.	3%2B-Z	.	[3%2gZ	.
=251	=251	=251	=251	=251	=251	=251	=251
0r	.	0r	.	3%2.cV	.	3g]V	.
.	.	.	.	.	.	3f	.
.	.	.	.	.	.	3e	.
.	.	.	.	3B-	.	3d	.
.	.	.	.	3A	.	3%2cZ	.
.	.	.	.	3GZ	.	.	.
=252	=252	=252	=252	=252	=252	=252	=252
0r	.	0r	.	3%2FV	.	3%2.fV	.
.	.	.	.	3%2.B-	.	.	.
.	.	.	.	.	.	3e	.
.	.	.	.	.	.	3d	.
.	.	.	.	3AZ	.	3cZ	.
=253	=253	=253	=253	=253	=253	=253	=253
0r	.	0r	.	3%2GV	.	3%2eV	.
!	!	!	!	!LO:TX:Z=24:t=MS&colon; e	!	!	!
.	.	.	.	3%2F	.	3%2.f	.
.	.	.	.	[3%2DZ	.	.	.
.	.	.	.	.	.	3eZ	.
=254	=254	=254	=254	=254	=254	=254	=254
0r	.	0r	.	3%2D]V	.	3%4dV	.
.	.	.	.	3%4EZ	-mi-	.	.
.	.	.	.	.	.	3%2c#XiZ	-mi-
=255	=255	=255	=255	=255	=255	=255	=255
1.GG	do-	0r	.	0D	-ne	[0d	-ne
2AA	.	.	.	.	.	.	.
=256	=256	=256	=256	=256	=256	=256	=256
2BB-	.	0r	.	0r	.	0d_	.
2C	.	.	.	.	.	.	.
1D	.	.	.	.	.	.	.
=257	=257	=257	=257	=257	=257	=257	=257
1.GG	-mi-	0r	.	1D	do-	0d]	.
.	.	.	.	[1G	.	.	.
2AA	.	.	.	.	.	.	.
=258	=258	=258	=258	=258	=258	=258	=258
2BB-	.	0r	.	2G]	.	1r	.
2C	.	.	.	2A	.	.	.
[1D	-ni,	.	.	2B-	.	1d	do-
.	.	.	.	2c	.	.	.
=259	=259	=259	=259	=259	=259	=259	=259
1D]	.	0r	.	1.d	.	1.f	.
1BB-	do-	.	.	.	.	.	.
.	.	.	.	2c	.	2g	.
=260	=260	=260	=260	=260	=260	=260	=260
2.FF	.	0r	.	1.c	.	2a	.
.	.	.	.	.	.	2b-	.
4GG	.	.	.	.	.	.	.
2AA	.	.	.	.	.	[1cc	.
2BB-	.	.	.	2B-	.	.	.
=261	=261	=261	=261	=261	=261	=261	=261
1C	.	0r	.	2A	.	2cc]	.
.	.	.	.	2G	.	2b-	.
1D	.	.	.	1F	.	1a	.
=262	=262	=262	=262	=262	=262	=262	=262
1GG	.	0r	.	1B-	.	1g	.
1D	.	.	.	1A	.	1f	.
=263	=263	=263	=263	=263	=263	=263	=263
1G	.	0r	.	1G	.	1b-	.
1D	.	.	.	1F	.	1a	.
=264	=264	=264	=264	=264	=264	=264	=264
0G	-mi-	0r	.	0B-	-mi-	0g	-mi-
=265	=265	=265	=265	=265	=265	=265	=265
0D	-ni,	0r	.	0A	-ni,	[0f#X	-ni,
=266	=266	=266	=266	=266	=266	=266	=266
1r	.	0r	.	0D	.	0f#]	.
[1A	do-	.	.	.	.	.	.
=267	=267	=267	=267	=267	=267	=267	=267
2A]	.	0r	.	1r	.	0r	.
2G	.	.	.	.	.	.	.
1F	.	.	.	[1d	do-	.	.
=268	=268	=268	=268	=268	=268	=268	=268
0E-	.	0r	.	1d]	.	0g	do-
.	.	.	.	1c	.	.	.
=269	=269	=269	=269	=269	=269	=269	=269
1D	.	0r	.	1d	.	1f	.
[1G	.	.	.	1B-	.	[1b-	.
=270	=270	=270	=270	=270	=270	=270	=270
1G]	.	0r	.	1.e-Xi	.	2b-]	.
.	.	.	.	.	.	2a	.
!LO:TX:Z=12:t=MS&colon; d	!	!	!	!	!	!	!
[1C	.	.	.	.	.	2g	.
.	.	.	.	2d	.	2f	.
=271	=271	=271	=271	=271	=271	=271	=271
1C]	.	0r	.	1c	.	1e	.
1GG	.	.	.	1B-	-mi-	2d	.
.	.	.	.	.	.	[2g	.
=272	=272	=272	=272	=272	=272	=272	=272
1D	.	0r	.	1A	-ni,	2g]	.
.	.	.	.	.	.	2f	.
1GG	.	.	.	1G	.	1b-	.
=273	=273	=273	=273	=273	=273	=273	=273
1FF	.	0r	.	1c	do-	2a	-mi-
.	.	.	.	.	.	2g	.
2GG	.	.	.	[1B-	.	1g	-ni,
[2BB-	.	.	.	.	.	.	.
=274	=274	=274	=274	=274	=274	=274	=274
2BB-]	.	0r	.	2B-]	.	1r	.
2C	.	.	.	4A	.	.	.
.	.	.	.	4G	.	.	.
1AA	-mi-	.	.	1F	.	1cc	do-
=275	=275	=275	=275	=275	=275	=275	=275
1GG	-ni,	0r	.	2G	.	1.b-	.
.	.	.	.	1B-	.	.	.
1r	.	.	.	.	.	.	.
.	.	.	.	2c	.	4a	.
.	.	.	.	.	.	4g	.
=276	=276	=276	=276	=276	=276	=276	=276
1D	do-	0r	.	1A	.	1f	.
1GG	.	.	.	1G	.	[1b-	.
=277	=277	=277	=277	=277	=277	=277	=277
1BB-	.	0r	.	1.d	.	1b-]	.
1FF	.	.	.	.	.	1a	-mi-
.	.	.	.	2c	.	.	.
=278	=278	=278	=278	=278	=278	=278	=278
1GG	-mi-	0r	.	1B-	.	1g	-ni,
1D	.	.	.	1A	-mi-	1f	.
=279	=279	=279	=279	=279	=279	=279	=279
1GG	-ni,	0r	.	1G	-ni,	1.b-	do-
1r	.	.	.	[1B-	do-	.	.
.	.	.	.	.	.	2a	.
=280	=280	=280	=280	=280	=280	=280	=280
1G	do-	0r	.	1B-]	.	1g	.
1D	.	.	.	1A	.	1f	.
=281	=281	=281	=281	=281	=281	=281	=281
1G	.	0r	.	1G	.	1b-	.
[1D	.	.	.	1F	-mi-	[1a	.
=282	=282	=282	=282	=282	=282	=282	=282
1D]	.	0r	.	0D	-ni,	2a]	.
.	.	.	.	.	.	2g	.
[1A	.	.	.	.	.	1f	.
=283	=283	=283	=283	=283	=283	=283	=283
2A]	.	0r	.	1.A	do-	1e	.
2G	.	.	.	.	.	.	.
1F	.	.	.	.	.	[1a	.
.	.	.	.	2B-	.	.	.
=284	=284	=284	=284	=284	=284	=284	=284
1Eni	.	0r	.	1c	.	2a]	.
.	.	.	.	.	.	2g	.
!LO:TX:Z=12:t=MS&colon; c	!	!	!	!	!	!	!
1D	.	.	.	1d	-mi-	1f	-mi-
=285	=285	=285	=285	=285	=285	=285	=285
1AA	.	0r	.	1c	-ni,	1e	-ni,
2BB-	.	.	.	1B-	.	[1d	.
2GG	.	.	.	.	.	.	.
=286	=286	=286	=286	=286	=286	=286	=286
2BB-	-mi-	0r	.	1G	.	1d]	.
2C	.	.	.	.	.	.	.
1D	-ni,	.	.	1F	.	[1a	do-
=287	=287	=287	=287	=287	=287	=287	=287
1r	.	0r	.	0B-	do-	2a]	.
.	.	.	.	.	.	2g	.
1G	do-	.	.	.	.	1g	.
=288	=288	=288	=288	=288	=288	=288	=288
1D	.	0r	.	1A	.	1f	.
1G	.	.	.	1G	.	[1b-	.
=289	=289	=289	=289	=289	=289	=289	=289
1B-	.	0r	.	1d	.	1b-]	.
1F	.	.	.	1c	.	1a	.
=290	=290	=290	=290	=290	=290	=290	=290
1E-	.	0r	.	0e-Xi	.	1g	.
1C	.	.	.	.	.	1cc	.
=291	=291	=291	=291	=291	=291	=291	=291
2D	.	0r	.	1.d	.	2b-	.
1F	.	.	.	.	.	1a	.
2G	.	.	.	4c	.	2f	.
.	.	.	.	4B-	.	.	.
=292	=292	=292	=292	=292	=292	=292	=292
2A	.	0r	.	2c	.	2e	.
2D	.	.	.	2d	.	1d	.
1G	.	.	.	1B-	.	.	.
.	.	.	.	.	.	[2g	.
=293	=293	=293	=293	=293	=293	=293	=293
0D	-mi-	0r	.	0A	-mi-	2g]	.
.	.	.	.	.	.	2f#Xi	.
.	.	.	.	.	.	2f#Xi	-mi-
.	.	.	.	.	.	2e	.
=294	=294	=294	=294	=294	=294	=294	=294
[0GGl	-ni.	0r	.	[0G	-ni.	[0gl	-ni.
=295	=295	=295	=295	=295	=295	=295	=295
0GG_	.	0r	.	0G]	.	0g_	.
=296	=296	=296	=296	=296	=296	=296	=296
0GG]	.	0r	.	0B-l	.	0g]	.
!!LO:LB:i:g=z
=297||	=297||	=297||	=297||	=297||	=297||	=297||	=297||
*>F	*>F	*>F	*>F	*>F	*>F	*>F	*>F
*clefF4	*	*clefGv2	*	*clefGv2	*	*clefG2	*
*k[b-e-]	*	*k[b-]	*	*k[b-]	*	*k[b-]	*
*M2/1	*	*M2/1	*	*M2/1	*	*M2/1	*
*met(O2)	*	*met(O2)	*	*met(O2)	*	*met(O2)	*
!!section: Osanna II
!!!OMD: Osanna II
[0D	O-	0r	.	0r	.	0r	.
=298.	=298.	=298.	=298.	=298.	=298.	=298.	=298
1D]	.	0r	.	0r	.	0r	.
1E-	.	.	.	.	.	.	.
=299.	=299.	=299.	=299.	=299.	=299.	=299.	=299
1D	.	0r	.	0r	.	0r	.
1G	.	.	.	.	.	.	.
=300	=300	=300	=300	=300	=300	=300	=300
1F	.	0r	.	[0D	O-	0r	.
[1D	.	.	.	.	.	.	.
=301.	=301.	=301.	=301.	=301.	=301.	=301.	=301
1D]	.	0r	.	1D]	.	0r	.
1C	.	.	.	1E-Xi	.	.	.
=302.	=302.	=302.	=302.	=302.	=302.	=302.	=302
1D	-san-	0r	.	1D	.	0r	.
1BB-	.	.	.	[1G	.	.	.
=303	=303	=303	=303	=303	=303	=303	=303
0AA	.	0r	.	1G]	.	0r	.
.	.	.	.	1F#Xi	.	.	.
=304.	=304.	=304.	=304.	=304.	=304.	=304.	=304
0GG	-na,	0r	.	1G	.	[0d	O-
.	.	.	.	[1B-	.	.	.
=305.	=305.	=305.	=305.	=305.	=305.	=305.	=305
1r	.	0r	.	1B-]	.	1d]	.
1C	o-	.	.	1c	.	1e-Xi	.
=306	=306	=306	=306	=306	=306	=306	=306
1BB-	-san-	0r	.	1d	-san-	1d	.
1GG	.	.	.	1B-	.	[1g	.
=307.	=307.	=307.	=307.	=307.	=307.	=307.	=307
0D	.	0r	.	0A	.	1g]	.
.	.	.	.	.	.	1f	.
=308.	=308.	=308.	=308.	=308.	=308.	=308.	=308
1GG	-na,	0r	.	1G	-na,	1g	.
[1G	o-	.	.	1d	o-	[1b-	.
=309	=309	=309	=309	=309	=309	=309	=309
1G]	.	0r	.	1B-	.	1b-]	.
[1F	-san-	.	.	[1c	-san-	[1a	-san-
=310.	=310.	=310.	=310.	=310.	=310.	=310.	=310
1F]	.	0r	.	1c]	.	2a]	.
.	.	.	.	.	.	2g	.
1G	.	.	.	1B-	.	[1g	.
=311.	=311.	=311.	=311.	=311.	=311.	=311.	=311
0D	-na	0r	.	0A	.	2g]	.
.	.	.	.	.	.	4f#Xi	.
.	.	.	.	.	.	4e	.
.	.	.	.	.	.	1f#Xi	.
=312	=312	=312	=312	=312	=312	=312	=312
1r	.	0r	.	[0G	-na	0g	-na
[1E-	in	.	.	.	.	.	.
=313.	=313.	=313.	=313.	=313.	=313.	=313.	=313
2E-]	.	0r	.	0G_	.	0r	.
2D	.	.	.	.	.	.	.
1C	ex-	.	.	.	.	.	.
=314.	=314.	=314.	=314.	=314.	=314.	=314.	=314
1GG	-cel-	0r	.	0G]	.	0d	in
1BB-	.	.	.	.	.	.	.
=315	=315	=315	=315	=315	=315	=315	=315
0C	.	0r	.	0r	.	0e	ex-
=316.	=316.	=316.	=316.	=316.	=316.	=316.	=316
[0D	-sis,	0r	.	0r	.	[0f	-cel-
=317.	=317.	=317.	=317.	=317.	=317.	=317.	=317
0D]	.	0r	.	0A	in	1f]	.
.	.	.	.	.	.	2e	.
.	.	.	.	.	.	2f	.
=318	=318	=318	=318	=318	=318	=318	=318
1r	.	0r	.	0B-	ex-	0g	.
1GG	in	.	.	.	.	.	.
=319.	=319.	=319.	=319.	=319.	=319.	=319.	=319
1AA	.	0r	.	[0c	-cel-	1a	.
1BB-	ex-	.	.	.	.	1g	.
=320.	=320.	=320.	=320.	=320.	=320.	=320.	=320
0C	-cel-	0r	.	1c]	.	0e	.
.	.	.	.	2B-	.	.	.
.	.	.	.	2c	.	.	.
=321	=321	=321	=321	=321	=321	=321	=321
0GG	.	0r	.	1d	.	1d	.
.	.	.	.	1B-	.	[1g	.
=322.	=322.	=322.	=322.	=322.	=322.	=322.	=322
0D	.	0r	.	0A	.	1g]	.
.	.	.	.	.	.	1f	.
=323.	=323.	=323.	=323.	=323.	=323.	=323.	=323
0G	.	0r	.	1G	-sis,	0b-	-sis,
.	.	.	.	[1d	in	.	.
=324	=324	=324	=324	=324	=324	=324	=324
[0F	.	0r	.	1d]	.	[0a	in
.	.	.	.	1c	.	.	.
=325.	=325.	=325.	=325.	=325.	=325.	=325.	=325
!	!	!	!	!LO:TX:Z=12:t=MS&colon; b sb	!	!	!
1F]	.	0r	.	1A	ex-	1a]	.
1D	.	.	.	[1d	-cel-	2g	ex-
.	.	.	.	.	.	2f	.
=326.	=326.	=326.	=326.	=326.	=326.	=326.	=326
0E-	-sis,	0r	.	2d]	.	1.g	-cel-
.	.	.	.	2B-	.	.	.
.	.	.	.	1c	.	.	.
.	.	.	.	.	.	2a	.
=327	=327	=327	=327	=327	=327	=327	=327
1r	.	0r	.	[0d	-sis,	0f	-sis,
[1D	o-	.	.	.	.	.	.
=328.	=328.	=328.	=328.	=328.	=328.	=328.	=328
2D]	.	0r	.	0d]	.	1r	.
2E-	.	.	.	.	.	.	.
1F	.	.	.	.	.	1a	o-
=329.	=329.	=329.	=329.	=329.	=329.	=329.	=329
0G	-san-	0r	.	1r	.	1.b-	-san-
.	.	.	.	1d	o-	.	.
.	.	.	.	.	.	2a	.
=330	=330	=330	=330	=330	=330	=330	=330
1C	.	0r	.	1e-Xi	-san-	1g	.
1D	.	.	.	[1d	.	1f	.
=331.	=331.	=331.	=331.	=331.	=331.	=331.	=331
1GG	.	0r	.	1d]	.	1b-	.
1AA	.	.	.	1c	.	1a	.
=332.	=332.	=332.	=332.	=332.	=332.	=332.	=332
1BB-	.	0r	.	1B-	.	0g	.
1C	.	.	.	1e-Xi	.	.	.
=333	=333	=333	=333	=333	=333	=333	=333
1D	.	0r	.	1.d	.	1f	-na
[1G	.	.	.	.	.	1d	.
.	.	.	.	2c	.	.	.
=334.	=334.	=334.	=334.	=334.	=334.	=334.	=334
2G]	.	0r	.	2B-	.	1r	.
2F	.	.	.	2A	.	.	.
1E-	.	.	.	1G	-na	1g	in
=335.	=335.	=335.	=335.	=335.	=335.	=335.	=335
0D	-na	0r	.	1.A	in	1.f	.
.	.	.	.	2G	.	2e	.
=336	=336	=336	=336	=336	=336	=336	=336
1r	.	0r	.	2F	.	2d	.
.	.	.	.	2E	.	2c	.
1F	in	.	.	1D	ex-	1f	ex-
=337.	=337.	=337.	=337.	=337.	=337.	=337.	=337
1C	ex-	0r	.	1G	-cel-	1e	-cel-
1D	-cel-	.	.	1F	.	[1d	.
=338.	=338.	=338.	=338.	=338.	=338.	=338.	=338
0AA	-sis,	0r	.	0E	.	1d]	.
.	.	.	.	.	.	1c#Xi	.
=339	=339	=339	=339	=339	=339	=339	=339
1r	.	0r	.	1.D	-sis,	1d	-sis,
[1D	o-	.	.	.	.	[1f	o-
.	.	.	.	2E	.	.	.
=340.	=340.	=340.	=340.	=340.	=340.	=340.	=340
1D]	.	0r	.	1F	.	1f]	.
1C	.	.	.	1G	o-	1e	.
=341.	=341.	=341.	=341.	=341.	=341.	=341.	=341
1BB-	-san-	0r	.	1B-	-san-	1d	-san-
!LO:TX:Z=12:t=MS&colon; G	!	!	!	!	!	!	!
1FF	.	.	.	1A	.	1f	.
=342	=342	=342	=342	=342	=342	=342	=342
1C	-na,	0r	.	0G	.	1e	.
1GG	.	.	.	.	.	[1d	.
=343.	=343.	=343.	=343.	=343.	=343.	=343.	=343
1r	.	0r	.	1B-	.	1d]	.
1FF	o-	.	.	1A	.	1f	.
=344.	=344.	=344.	=344.	=344.	=344.	=344.	=344
1C	-san-	0r	.	1G	.	1e	.
[1BB-	.	.	.	1B-	.	1d	.
=345	=345	=345	=345	=345	=345	=345	=345
2BB-]	.	0r	.	0d	-na	1f	-na
2AA	.	.	.	.	.	.	.
1GG	-na	.	.	.	.	[1b-	in
=346.	=346.	=346.	=346.	=346.	=346.	=346.	=346
1G	in	0r	.	1B-	in	1b-]	.
1F	ex-	.	.	1c	ex-	1a	ex-
=347.	=347.	=347.	=347.	=347.	=347.	=347.	=347
1C	-cel-	0r	.	1e-Xi	-cel-	1g	-cel-
1BB-	.	.	.	1d	.	1b-	.
=348	=348	=348	=348	=348	=348	=348	=348
1F	.	0r	.	1c	-sis,	1a	.
1E-	.	.	.	1r	.	[1g	.
=349.	=349.	=349.	=349.	=349.	=349.	=349.	=349
0C	-sis,	0r	.	0e-Xi	in	1g]	.
.	.	.	.	.	.	[1cc	.
=350.	=350.	=350.	=350.	=350.	=350.	=350.	=350
1r	.	0r	.	1d	.	2cc]	.
.	.	.	.	.	.	2b-	.
1F	ex-	.	.	1c	ex-	1a	.
=351	=351	=351	=351	=351	=351	=351	=351
1C	-cel-	0r	.	1e-Xi	-cel-	1g	.
1BB-	.	.	.	1d	.	1b-	.
=352.	=352.	=352.	=352.	=352.	=352.	=352.	=352
1F	.	0r	.	0c	.	1a	.
1C	.	.	.	.	.	[1g	.
=353.	=353.	=353.	=353.	=353.	=353.	=353.	=353
1E-	.	0r	.	1B-	-sis,	1g]	.
1F	.	.	.	1A	.	1f	.
=354	=354	=354	=354	=354	=354	=354	=354
1G	.	0r	.	0G	.	1e	-sis,
1B-	.	.	.	.	.	1d	.
=355.	=355.	=355.	=355.	=355.	=355.	=355.	=355
1A	-sis,	0r	.	1F	in	1r	.
1G	.	.	.	[1E	.	[1g	in
=356.	=356.	=356.	=356.	=356.	=356.	=356.	=356
1r	.	0r	.	2E]	.	2g]	.
.	.	.	.	2D	.	2f	.
2GG	o-	.	.	[1G	.	[1b-	.
2GG	-san-	.	.	.	.	.	.
=357	=357	=357	=357	=357	=357	=357	=357
1GG	-na	0r	.	1G]	.	1b-]	.
[1D	in	.	.	1F	ex-	[1a	ex-
=358.	=358.	=358.	=358.	=358.	=358.	=358.	=358
1D]	.	0r	.	0B-	-cel-	2a]	.
.	.	.	.	.	.	2g	.
1GG	ex-	.	.	.	.	[1g	-cel-
=359.	=359.	=359.	=359.	=359.	=359.	=359.	=359
0D	-cel-	0r	.	0A	.	1g]	.
.	.	.	.	.	.	1f#Xi	.
=360	=360	=360	=360	=360	=360	=360	=360
0GGl	-sis.	0r	.	0Gl	-sis.	0gl	-sis.
==	==	==	==	==	==	==	==
*-	*-	*-	*-	*-	*-	*-	*-
!!!RDF**kern: l = long note in original notation
!!!RDF**kern: i = editorial accidental
!!!RDF**kern: V = start of tuplet marker
!!!RDF**kern: Z = end of tuplet marker
!!!ENC: Jesse Rodin and Emily Zazulia
!!!END: 2019/02/10/
!!!EED: Jesse Rodin
!!!EEV: 2019/02/27/
!!!ONB: Translated from MusicXML and edited on 2019/02/27/ by Craig Sapp
!!muse2ps: T^@{OPR}^u^@{ONM}{. }@{OTL}^C^@{COM}\n@{SCT}^i2I150v90,90,90,120c122z18l2700t130
